24x24/places/folder-black-projects.svg

<svg xmlns="http://www.w3.org/2000/svg" width="24" height="24" version="1"><rect style="opacity:.2" width="20" height="12" x="2" y="9.5" rx="1" ry="1"/><path style="fill:#17191e" d="M2 17c0 .554.446 1 1 1h18c.554 0 1-.446 1-1V6c0-.554-.446-1-1-1h-9c-1.5 0-2-2-3.5-2H3c-.554 0-1 .446-1 1"/><rect style="opacity:.2" width="20" height="12" x="2" y="8.5" rx="1" ry="1"/><rect style="fill:#dcdcdc" width="16" height="8" x="4" y="7" rx="1" ry="1"/><rect style="fill:#4f4f4f" width="20" height="12" x="2" y="9" rx="1" ry="1"/><path style="opacity:.1;fill:#f4f4f7" d="M3 3c-.554 0-1 .446-1 1v.5c0-.554.446-1 1-1h5.5c1.5 0 2 2 3.5 2h9c.554 0 1 .446 1 1V6c0-.554-.446-1-1-1h-9c-1.5 0-2-2-3.5-2z"/><path style="fill:#b2bfs9" d="M14 11a1.495 1.495 0 0 0 0 2.82V15c.456.304.781.695 1 1.088V13.82A1.495 1.495 0 0 0 15 11v1a.499.499 0 1 1-1 0zm-2 4c-3 0-3 3-3 3H8v1h8v-1h-1s0-3-3-3zm0 1c2 0 2 2 2 2h-4s0-2 2-2z"/></svg>

<svg xmlns="http://www.w3.org/2000/svg" width="24" height="24" version="1">
 <rect style="opacity:0.2" width="20" height="12" x="2" y="9.5" rx="1" ry="1"/>
 <path style="fill:#17191e" d="M 2,17 C 2,17.554 2.446,18 3,18 H 21 C 21.554,18 22,17.554 22,17 V 6 C 22,5.446 21.554,5 21,5 H 12 C 10.5,5 10,3 8.5,3 H 3 C 2.446,3 2,3.446 2,4"/>
 <rect style="opacity:0.2" width="20" height="12" x="2" y="8.5" rx="1" ry="1"/>
 <rect style="fill:#dcdcdc" width="16" height="8" x="4" y="7" rx="1" ry="1"/>
 <rect style="fill:#4f4f4f" width="20" height="12" x="2" y="9" rx="1" ry="1"/>
 <path style="opacity:0.1;fill:#f4f4f7" d="M 3,3 C 2.446,3 2,3.446 2,4 V 4.5 C 2,3.946 2.446,3.5 3,3.5 H 8.5 C 10,3.5 10.5,5.5 12,5.5 H 21 C 21.554,5.5 22,5.946 22,6.5 V 6 C 22,5.446 21.554,5 21,5 H 12 C 10.5,5 10,3 8.5,3 Z"/>
 <path style="fill:#b2bfs9" d="M 14,11 C 13.4,11.212 13,11.777 13,12.412 13,13.064 13.419,13.614 14,13.82 V 15 C 14.456,15.304 14.781,15.695 15,16.088 V 13.82 C 15.581,13.614 16,13.064 16,12.412 16,11.777 15.6,11.212 15,11 V 12 C 15,12.277 14.777,12.5 14.5,12.5 14.223,12.5 14,12.277 14,12 Z M 12,15 C 9,15 9,18 9,18 H 8 V 19 H 16 V 18 H 15 C 15,18 15,15 12,15 Z M 12,16 C 14,16 14,18 14,18 H 10 C 10,18 10,16 12,16 Z"/>
</svg>
